static/rooms/admin_st/boom-barrier.svg

<svg xmlns="http://www.w3.org/2000/svg" width="95" height="58"><g transform="translate(40.5 45.5)"><path d="M-26.35-6.8q3.5.8 5.65 2.95 2.1 2.1 1.65 4.35-.55 2.2-3.35 3.2l-6.35.2Q-32.3 3.1-34.4 1q-2.15-2.15-1.65-4.35.5-2.2 3.35-3.2l6.35-.25" fill-opacity=".2"/><path d="M5-10.95v-9.45l15 7.5v9.4L5-10.95m45 13v9.4L35 4v-9.35l14.8 7.4h.2M-22.45-24.6L-25-25.85v-9.55l.7.35L-10-27.9v9.5l-12.45-6.2" fill="#e32b1c"/><path d="M34.95-5.4l.05.05V4L20-3.5v-9.4l14.95 7.5M-10-18.4v-9.5l7.95 4 1.85.95.05-.05L5-20.4v9.45l-15-7.45m-16.45-8.15v-9.55l1.45.7v9.55l-1.45-.7m-7-3.5L-40-33.3v-9.6l.7.35 6 3 .25.15-.35.9v8.45h-.05" fill="#f3f3ed"/><path d="M8.85-22.5l15 7.55L20-12.9 5-20.4l3.85-2.1M50 2.05v-.1l-.2.1L35-5.35v-.05l3.8-2.05L53.5-.1v9.8L50 11.45v-9.4M-6.15-30L-10-27.9l-14.3-7.15 3.85-2.1-.55-.25L-6.15-30" fill="#c92518"/><path d="M38.8-7.45L35-5.4h-.05L20-12.9l3.85-2.05 14.95 7.5M8.85-22.5L5-20.4-.15-23l-1.9-.9-7.95-4 3.85-2.1 15 7.5M-24.3-35.05l-.7-.35-1.45-.7-.35-.2-.4-.2-1.05-.5-3.1-1.55-.85-.45-.4-.2-.45-.2-.25-.15-6-3-.7-.35 3.85-2.1 7.9 3.95.1.05 1.7.85 4.1 2.05 1.35.7.55.25-3.85 2.1" fill="#ecece3"/><linearGradient id="a" gradientUnits="userSpaceOnUse" gradientTransform="matrix(.00676 0 0 .00275 -27.9 -38.8)" spreadMethod="pad" x1="-819.2" y1="0" x2="819.2" y2="0"><stop offset="0" stop-color="#de3434"/><stop offset=".498" stop-color="#e89191"/><stop offset="1" stop-color="#b62121"/></linearGradient><path d="M-27.9-41h-.25l-.1-.05h.35q2.3 0 3.9.75 1.15.55 1.55 1.25l.1.95-4.1-2.05v-.75l-1.45-.1" fill="url(#a)"/><linearGradient id="b" gradientUnits="userSpaceOnUse" gradientTransform="matrix(.00676 0 0 .00275 -27.9 -38.75)" spreadMethod="pad" x1="-819.2" y1="0" x2="819.2" y2="0"><stop offset="0" stop-color="#de3434"/><stop offset=".498" stop-color="#e89191"/><stop offset="1" stop-color="#b62121"/></linearGradient><path d="M-28.15-41h.25l1.45.1v.75l-1.7-.85m.9 4.5h-.65l-3.9-.45q-1.4-.4-1.6-.95v-.6l.35-.9.45.2.4.2.85.45 3.1 1.55 1.05.5h-.05" fill="url(#b)"/><path d="M-22.45-39.4l.1.55v.75l-.1-.95v-.35" fill="#d3ba70"/><linearGradient id="c" gradientUnits="userSpaceOnUse" gradientTransform="matrix(.00671 0 0 .02985 -27.95 -13.45)" spreadMethod="pad" x1="-819.2" y1="0" x2="819.2" y2="0"><stop offset="0" stop-color="#c02121"/><stop offset=".498" stop-color="#de6969"/><stop offset="1" stop-color="#981d1d"/></linearGradient><path d="M-27.2-36.5l.4.2.35.2v21.8h-6.95V-37.9q.2.55 1.6.95l3.9.45H-27.2" fill="url(#c)"/><linearGradient id="d" gradientUnits="userSpaceOnUse" gradientTransform="matrix(.00671 0 0 .02985 -27.95 -13.5)" spreadMethod="pad" x1="-819.2" y1="0" x2="819.2" y2="0"><stop offset="0" stop-color="#c02121"/><stop offset=".498" stop-color="#de6969"/><stop offset="1" stop-color="#981d1d"/></linearGradient><path d="M-22.45-14.3h-4v-12.25l1.45.7 2.55 1.25v10.3" fill="url(#d)"/><linearGradient id="e" gradientUnits="userSpaceOnUse" gradientTransform="matrix(.00671 0 0 .02985 -27.95 -23.5)" spreadMethod="pad" x1="-819.2" y1="0" x2="819.2" y2="0"><stop offset="0" stop-color="#c02121"/><stop offset=".498" stop-color="#de6969"/><stop offset="1" stop-color="#981d1d"/></linearGradient><path d="M-22.45-.1h-.1q-.5.35-1.45.6l-3.9.45-3.9-.45-1.35-.6-.25-.35v-9l-.05-1.2v-3.65h11V-.1" fill="url(#e)"/><linearGradient id="f" gradientUnits="userSpaceOnUse" gradientTransform="matrix(.00685 0 0 .08197 -27.95 -21.4)" spreadMethod="pad" x1="-819.2" y1="0" x2="819.2" y2="0"><stop offset="0" stop-color="#556073"/><stop offset=".498" stop-color="#828d9f"/><stop offset="1" stop-color="#575c71"/><stop offset="1" stop-color="#ae0202"/></linearGradient><path d="M-33.45-9.45h.05V-.1h-.05v-9.35" fill="url(#f)"/><linearGradient id="g" gradientUnits="userSpaceOnUse" gradientTransform="matrix(.00685 0 0 .08197 -27.95 18.6)" spreadMethod="pad" x1="-819.2" y1="0" x2="819.2" y2="0"><stop offset="0" stop-color="#a9a9a9"/><stop offset=".498" stop-color="#c4c4c4"/><stop offset="1" stop-color="#9f9f9f"/><stop offset="1" stop-color="#ae0202"/></linearGradient><path d="M-33.4-.45l.25.35h-.25v-.35" fill="url(#g)"/><path d="M34.95-5.4H35v.05l-.05-.05L20-12.9 5-20.4-.15-23l-.05.05-1.85-.95-7.95-4-14.3-7.15-.7-.35m0 9.55l2.55 1.25L-10-18.4l15 7.45L20-3.5 35 4m0-9.35l14.8 7.4.2-.1L53.5.2v-.3L38.8-7.45l-14.95-7.5-15-7.55M50 1.95v9.5l3.5-1.75V.2M50 11.45L35 4m-61.45-44.15l4.1 2.05m-5.9-2.95l.1.05m1.7.85l-1.7-.85m7.7 3.85l-.55-.25-1.35-.7m-5.9-2.95l-7.9-3.95-3.85 2.1.7.35 6 3 .7.35.4.2.85.45 3.1 1.55m1.8.9l1.45.7m-8.3-4.15l.25.15.45.2m5.35 2.7l-1-.5M-40-42.9v9.6l6.55 3.25h.05m8.4 4.2l-1.45-.7m-.35-9.75v9.6m24.75 2.8l1.9.9M-21-37.4L-6.15-30l15 7.5" fill="none" stroke-linecap="round" stroke-linejoin="round" stroke-miterlimit="3" stroke="#555"/><path d="M-22.35-38.1l-.1-.95m-5.7-1.95h.25l1.45.1m4 1.5v.35M-33.4-24.6v10.3m0 13.85l.25.35m-.25-.35v.35" fill="none" stroke-linecap="round" stroke-linejoin="round" stroke-miterlimit="3" stroke="#666"/><path d="M-22.45-39.05q-.4-.7-1.55-1.25-1.6-.75-3.9-.75h-.35m5.9 2.95v-.75l-.1-.55m-10.6 0l-.35.9v.6q.2.55 1.6.95l3.9.45H-27.2m-6.25 6.45l.05-2.65v-5.2m0 7.85v-2.65M-22.45-.1v-24.5m-11-5.45v19.4m.3 10.55l1.35.6 3.9.45L-24 .5q.95-.25 1.45-.6m-10.9-12.05v2.7-1.2m0 10.55v-9.35" fill="none" stroke-linecap="round" stroke-linejoin="round" stroke-miterlimit="3" stroke="#68130d"/></g></svg>

<?xml version="1.0" encoding="utf-8"?>
<svg version="1.1" id="Layer_1"
xmlns="http://www.w3.org/2000/svg"
xmlns:xlink="http://www.w3.org/1999/xlink"
xmlns:author="http://www.sothink.com"
width="95px" height="58px"
xml:space="preserve">
<g id="659" transform="matrix(1, 0, 0, 1, 40.5, 45.5)">
<path style="fill:#000000;fill-opacity:0.2" d="M-26.35,-6.8Q-22.85 -6 -20.7 -3.85Q-18.6 -1.75 -19.05 0.5Q-19.6 2.7 -22.4 3.7L-28.75 3.9Q-32.3 3.1 -34.4 1Q-36.55 -1.15 -36.05 -3.35Q-35.55 -5.55 -32.7 -6.55L-26.35 -6.8" />
<path style="fill:#E32B1C;fill-opacity:1" d="M5,-10.95L5 -20.4L20 -12.9L20 -3.5L5 -10.95M50,2.05L50 11.45L35 4L35 -5.35L49.8 2.05L50 2.05M-22.45,-24.6L-25 -25.85L-25 -35.4L-24.3 -35.05L-10 -27.9L-10 -18.4L-22.45 -24.6" />
<path style="fill:#F3F3ED;fill-opacity:1" d="M34.95,-5.4L35 -5.35L35 4L20 -3.5L20 -12.9L34.95 -5.4M-10,-18.4L-10 -27.9L-2.05 -23.9L-0.2 -22.95L-0.15 -23L5 -20.4L5 -10.95L-10 -18.4M-26.45,-26.55L-26.45 -36.1L-25 -35.4L-25 -25.85L-26.45 -26.55M-33.45,-30.05L-40 -33.3L-40 -42.9L-39.3 -42.55L-33.3 -39.55L-33.05 -39.4L-33.4 -38.5L-33.4 -37.9L-33.4 -32.7L-33.4 -30.05L-33.45 -30.05" />
<path style="fill:#C92518;fill-opacity:1" d="M8.85,-22.5L23.85 -14.95L20 -12.9L5 -20.4L8.85 -22.5M50,2.05L50 1.95L49.8 2.05L35 -5.35L35 -5.4L38.8 -7.45L53.5 -0.1L53.5 0.2L53.5 9.7L50 11.45L50 2.05M-6.15,-30L-10 -27.9L-24.3 -35.05L-20.45 -37.15L-21 -37.4L-6.15 -30" />
<path style="fill:#ECECE3;fill-opacity:1" d="M38.8,-7.45L35 -5.4L34.95 -5.4L20 -12.9L23.85 -14.95L38.8 -7.45M8.85,-22.5L5 -20.4L-0.15 -23L-2.05 -23.9L-10 -27.9L-6.15 -30L8.85 -22.5M-24.3,-35.05L-25 -35.4L-26.45 -36.1L-26.8 -36.3L-27.2 -36.5L-28.25 -37L-31.35 -38.55L-32.2 -39L-32.6 -39.2L-33.05 -39.4L-33.3 -39.55L-39.3 -42.55L-40 -42.9L-36.15 -45L-28.25 -41.05L-28.15 -41L-26.45 -40.15L-22.35 -38.1L-21 -37.4L-20.45 -37.15L-24.3 -35.05" />
<linearGradient
id="LinearGradID_2901" gradientUnits="userSpaceOnUse" gradientTransform="matrix(0.00675964, 0, 0, 0.00274658, -27.9, -38.8)" spreadMethod ="pad" x1="-819.2" y1="0" x2="819.2" y2="0" >
<stop  offset="0" style="stop-color:#DE3434;stop-opacity:1" />
<stop  offset="0.498039" style="stop-color:#E89191;stop-opacity:1" />
<stop  offset="1" style="stop-color:#B62121;stop-opacity:1" />
</linearGradient>
<path style="fill:url(#LinearGradID_2901) " d="M-27.9,-41L-28.15 -41L-28.25 -41.05L-27.9 -41.05Q-25.6 -41.05 -24 -40.3Q-22.85 -39.75 -22.45 -39.05L-22.35 -38.1L-26.45 -40.15L-26.45 -40.9L-27.9 -41" />
<linearGradient
id="LinearGradID_2902" gradientUnits="userSpaceOnUse" gradientTransform="matrix(0.00675964, 0, 0, 0.00274658, -27.9, -38.75)" spreadMethod ="pad" x1="-819.2" y1="0" x2="819.2" y2="0" >
<stop  offset="0" style="stop-color:#DE3434;stop-opacity:1" />
<stop  offset="0.498039" style="stop-color:#E89191;stop-opacity:1" />
<stop  offset="1" style="stop-color:#B62121;stop-opacity:1" />
</linearGradient>
<path style="fill:url(#LinearGradID_2902) " d="M-28.15,-41L-27.9 -41L-26.45 -40.9L-26.45 -40.15L-28.15 -41M-27.25,-36.5L-27.9 -36.5L-31.8 -36.95Q-33.2 -37.35 -33.4 -37.9L-33.4 -38.5L-33.05 -39.4L-32.6 -39.2L-32.2 -39L-31.35 -38.55L-28.25 -37L-27.2 -36.5L-27.25 -36.5" />
<path style="fill:#D3BA70;fill-opacity:1" d="M-22.45,-39.4L-22.35 -38.85L-22.35 -38.45L-22.35 -38.35L-22.35 -38.1L-22.45 -39.05L-22.45 -39.4" />
<linearGradient
id="LinearGradID_2903" gradientUnits="userSpaceOnUse" gradientTransform="matrix(0.00671387, 0, 0, 0.0298462, -27.95, -13.45)" spreadMethod ="pad" x1="-819.2" y1="0" x2="819.2" y2="0" >
<stop  offset="0" style="stop-color:#C02121;stop-opacity:1" />
<stop  offset="0.498039" style="stop-color:#DE6969;stop-opacity:1" />
<stop  offset="1" style="stop-color:#981D1D;stop-opacity:1" />
</linearGradient>
<path style="fill:url(#LinearGradID_2903) " d="M-27.2,-36.5L-26.8 -36.3L-26.45 -36.1L-26.45 -26.55L-26.45 -14.3L-33.4 -14.3L-33.4 -24.6L-33.4 -30.05L-33.4 -32.7L-33.4 -37.9Q-33.2 -37.35 -31.8 -36.95L-27.9 -36.5L-27.25 -36.5L-27.2 -36.5" />
<linearGradient
id="LinearGradID_2904" gradientUnits="userSpaceOnUse" gradientTransform="matrix(0.00671387, 0, 0, 0.0298462, -27.95, -13.5)" spreadMethod ="pad" x1="-819.2" y1="0" x2="819.2" y2="0" >
<stop  offset="0" style="stop-color:#C02121;stop-opacity:1" />
<stop  offset="0.498039" style="stop-color:#DE6969;stop-opacity:1" />
<stop  offset="1" style="stop-color:#981D1D;stop-opacity:1" />
</linearGradient>
<path style="fill:url(#LinearGradID_2904) " d="M-22.45,-14.3L-26.45 -14.3L-26.45 -26.55L-25 -25.85L-22.45 -24.6L-22.45 -14.3" />
<linearGradient
id="LinearGradID_2905" gradientUnits="userSpaceOnUse" gradientTransform="matrix(0.00671387, 0, 0, 0.0298462, -27.95, -23.5)" spreadMethod ="pad" x1="-819.2" y1="0" x2="819.2" y2="0" >
<stop  offset="0" style="stop-color:#C02121;stop-opacity:1" />
<stop  offset="0.498039" style="stop-color:#DE6969;stop-opacity:1" />
<stop  offset="1" style="stop-color:#981D1D;stop-opacity:1" />
</linearGradient>
<path style="fill:url(#LinearGradID_2905) " d="M-22.45,-0.1L-22.55 -0.1Q-23.05 0.25 -24 0.5L-27.9 0.95L-31.8 0.5L-33.15 -0.1L-33.4 -0.45L-33.4 -9.45L-33.45 -10.65L-33.45 -11.05L-33.45 -11.55L-33.45 -12.15L-33.45 -14.3L-33.4 -14.3L-26.45 -14.3L-22.45 -14.3L-22.45 -0.1" />
<linearGradient
id="LinearGradID_2906" gradientUnits="userSpaceOnUse" gradientTransform="matrix(0.0068512, 0, 0, 0.0819702, -27.95, -21.4)" spreadMethod ="pad" x1="-819.2" y1="0" x2="819.2" y2="0" >
<stop  offset="0" style="stop-color:#556073;stop-opacity:1" />
<stop  offset="0.498039" style="stop-color:#828D9F;stop-opacity:1" />
<stop  offset="1" style="stop-color:#575C71;stop-opacity:1" />
<stop  offset="1" style="stop-color:#AE0202;stop-opacity:1" />
</linearGradient>
<path style="fill:url(#LinearGradID_2906) " d="M-33.45,-9.45L-33.4 -9.45L-33.4 -0.45L-33.4 -0.1L-33.45 -0.1L-33.45 -9.45" />
<linearGradient
id="LinearGradID_2907" gradientUnits="userSpaceOnUse" gradientTransform="matrix(0.0068512, 0, 0, 0.0819702, -27.95, 18.6)" spreadMethod ="pad" x1="-819.2" y1="0" x2="819.2" y2="0" >
<stop  offset="0" style="stop-color:#A9A9A9;stop-opacity:1" />
<stop  offset="0.498039" style="stop-color:#C4C4C4;stop-opacity:1" />
<stop  offset="1" style="stop-color:#9F9F9F;stop-opacity:1" />
<stop  offset="1" style="stop-color:#AE0202;stop-opacity:1" />
</linearGradient>
<path style="fill:url(#LinearGradID_2907) " d="M-33.4,-0.45L-33.15 -0.1L-33.4 -0.1L-33.4 -0.45" />
<path style="fill:none;stroke-width:1;stroke-linecap:round;stroke-linejoin:round;stroke-miterlimit:3;stroke:#555555;stroke-opacity:1" d="M34.95,-5.4L35 -5.4L35 -5.35L34.95 -5.4L20 -12.9L5 -20.4L-0.15 -23L-0.2 -22.95L-2.05 -23.9L-10 -27.9L-24.3 -35.05L-25 -35.4M-25,-25.85L-22.45 -24.6L-10 -18.4L5 -10.95L20 -3.5L35 4M35,-5.35L49.8 2.05L50 1.95L53.5 0.2L53.5 -0.1L38.8 -7.45L23.85 -14.95L8.85 -22.5M50,1.95L50 2.05L50 11.45L53.5 9.7L53.5 0.2M50,11.45L35 4M-26.45,-40.15L-22.35 -38.1M-28.25,-41.05L-28.15 -41M-26.45,-40.15L-28.15 -41M-20.45,-37.15L-21 -37.4L-22.35 -38.1M-28.25,-41.05L-36.15 -45L-40 -42.9L-39.3 -42.55L-33.3 -39.55L-32.6 -39.2L-32.2 -39L-31.35 -38.55L-28.25 -37M-26.45,-36.1L-25 -35.4M-33.3,-39.55L-33.05 -39.4L-32.6 -39.2M-27.25,-36.5L-28.25 -37M-40,-42.9L-40 -33.3L-33.45 -30.05L-33.4 -30.05M-25,-25.85L-26.45 -26.55M-26.8,-36.3L-26.8 -26.7M-2.05,-23.9L-0.15 -23M-21,-37.4L-6.15 -30L8.85 -22.5" />
<path style="fill:none;stroke-width:1;stroke-linecap:round;stroke-linejoin:round;stroke-miterlimit:3;stroke:#666666;stroke-opacity:1" d="M-22.35,-38.1L-22.45 -39.05M-28.15,-41L-27.9 -41L-26.45 -40.9M-22.45,-39.4L-22.45 -39.05M-33.4,-24.6L-33.4 -14.3M-33.4,-0.45L-33.15 -0.1M-33.4,-0.45L-33.4 -0.1" />
<path style="fill:none;stroke-width:1;stroke-linecap:round;stroke-linejoin:round;stroke-miterlimit:3;stroke:#68130D;stroke-opacity:1" d="M-22.45,-39.05Q-22.85 -39.75 -24 -40.3Q-25.6 -41.05 -27.9 -41.05L-28.25 -41.05M-22.35,-38.1L-22.35 -38.35L-22.35 -38.45L-22.35 -38.85L-22.45 -39.4M-33.05,-39.4L-33.4 -38.5L-33.4 -37.9Q-33.2 -37.35 -31.8 -36.95L-27.9 -36.5L-27.25 -36.5L-27.2 -36.5M-33.45,-30.05L-33.4 -32.7L-33.4 -37.9M-33.4,-30.05L-33.4 -32.7M-22.45,-0.1L-22.45 -14.3L-22.45 -24.6M-33.45,-30.05L-33.45 -14.3L-33.45 -12.15L-33.45 -11.55L-33.45 -11.05L-33.45 -10.65M-33.15,-0.1L-31.8 0.5L-27.9 0.95L-24 0.5Q-23.05 0.25 -22.55 -0.1M-33.45,-12.15L-33.45 -10.8L-33.45 -9.45L-33.45 -10.65M-33.45,-0.1L-33.45 -9.45" />
</g>
</svg>
